Obsidian-SemiLight/actions/22s/labplot-axis-vertical.svg

<svg xmlns="http://www.w3.org/2000/svg" viewBox="0 0 22 22">
  <defs id="defs3051">
    <style type="text/css" id="current-color-scheme">
      .ColorScheme-Text {
        color:#4d4d4d;
      }
      </style>
  </defs>
 <path 
     style="fill:currentColor;fill-opacity:1;stroke:none" 
     d="M 4 3 L 4 17 L 3 17 L 3 18 L 4 18 L 4 19 L 5 19 L 5 18 L 19 18 L 19 17 L 5 17 L 5 13.333984 L 7 13.333984 L 7 12.333984 L 5 12.333984 L 5 4 L 7 4 L 7 3 L 5 3 L 4 3 z M 5.0078125 7.6660156 L 5.0078125 8.6660156 L 7.0078125 8.6660156 L 7.0078125 7.6660156 L 5.0078125 7.6660156 z "
     class="ColorScheme-Text"
     />
</svg>

<svg viewBox="0 0 22 22" xmlns="http://www.w3.org/2000/svg"><path d="m4 3v14h-1v1h1v1h1v-1h14v-1h-14v-3.666016h2v-1h-2v-8.333984h2v-1h-2zm1.0078125 4.6660156v1h2v-1z" fill="#4d4d4d"/></svg>
